X:3
T:Liz and Toby's Wedding Day
R:strathspey
C:David Greenberg and Kate Dunlay
O:20th century Cape Breton
S:Silver Apple News, 2004
B:Canadian Fiddle Tunes Vol.2
Z:Paul Stewart Cranford (P.S.C.), <http://www.cranfordpub.com>
Q:244
L:1/8
M:C
K:C
G|c>dc>A G<cE>G|c>de>G {G} A2 A>G||c>dc>A G<cE>G|F>AG>c EE|
c>dc>A G<cE>g|e>dc>G {G} A2 (3AAG|c>dc>A G<cE>G|F>AG>c E<DD||
||e|c>de>a g<ee>d|c>de>G {G} A2 A>G|c>de>a g<ee>d|c>AG>c Ee|
c>de>a g<ee>d|c<ge>g a2 a<c'|(3gfe (3dcB (3cBA (3GFE|(3FGA (3GcE E<DD|]
